app/img/logo-dark.svg

<svg xmlns="http://www.w3.org/2000/svg" width="61.042" height="58.871" viewBox="0 0 61.042 58.871"><g fill="#457CB4"><path d="M31.867 27.549c-4.307 0-7.809 3.502-7.809 7.809s3.501 7.8 7.809 7.8c4.307 0 7.801-3.493 7.801-7.8s-3.497-7.809-7.801-7.809zM60.929 33.161c-.237-6.713-1.446-20.171-1.446-20.171l-5.202.423s1.396-9.139-2.513-11.323c-8.146-4.55-26.202-.622-30.374 1.892-6.2 3.732-3.309 13.049-3.309 13.049l-17.257 2.079s-1.146 3.442-.742 15.687c.401 12.242 2.436 16.648 2.436 16.648l46.177 1.27 11.561 6.156-.354-5.396 1.04-.229c0 .001.227-13.371-.017-20.085zm-7.4-10.253c0 1.865-1.515 3.381-3.375 3.381-1.869 0-3.375-1.514-3.375-3.381 0-1.867 1.506-3.378 3.375-3.378 1.86-.001 3.375 1.513 3.375 3.378zm-31.078-14.852c2.757-3.978 24.96-6.316 27.152-3.51 3.695 3.914.999 9.333.999 9.333l-27.988 2.726c0-.001-2.099-5.752-.163-8.549zm9.416 36.995c-5.35 0-9.701-4.347-9.701-9.693 0-5.352 4.352-9.7 9.701-9.7 5.346 0 9.693 4.349 9.693 9.7 0 5.346-4.348 9.693-9.693 9.693z"/></g></svg>

<?xml version="1.0" encoding="utf-8"?>
<!-- Generator: Adobe Illustrator 15.1.0, SVG Export Plug-In . SVG Version: 6.00 Build 0)  -->
<!DOCTYPE svg PUBLIC "-//W3C//DTD SVG 1.1//EN" "http://www.w3.org/Graphics/SVG/1.1/DTD/svg11.dtd">
<svg version="1.1" id="Layer_1" xmlns="http://www.w3.org/2000/svg" xmlns:xlink="http://www.w3.org/1999/xlink" x="0px" y="0px"
	 width="61.042px" height="58.871px" viewBox="0 0 61.042 58.871" enable-background="new 0 0 61.042 58.871" xml:space="preserve">
<g>
	<path fill="#457CB4" d="M31.867,27.549c-4.307,0-7.809,3.502-7.809,7.809s3.501,7.8,7.809,7.8c4.307,0,7.801-3.493,7.801-7.8
		S36.171,27.549,31.867,27.549z"/>
	<path fill="#457CB4" d="M60.929,33.161c-0.237-6.713-1.446-20.171-1.446-20.171l-5.202,0.423c0,0,1.396-9.139-2.513-11.323
		c-8.146-4.55-26.202-0.622-30.374,1.892c-6.2,3.732-3.309,13.049-3.309,13.049L0.828,19.11c0,0-1.146,3.442-0.742,15.687
		c0.401,12.242,2.436,16.648,2.436,16.648l46.177,1.27l11.561,6.156l-0.354-5.396l1.04-0.229
		C60.946,53.247,61.173,39.875,60.929,33.161z M53.529,22.908c0,1.865-1.515,3.381-3.375,3.381c-1.869,0-3.375-1.514-3.375-3.381
		c0-1.867,1.506-3.378,3.375-3.378C52.014,19.529,53.529,21.043,53.529,22.908z M22.451,8.056c2.757-3.978,24.96-6.316,27.152-3.51
		c3.695,3.914,0.999,9.333,0.999,9.333l-27.988,2.726C22.614,16.604,20.515,10.853,22.451,8.056z M31.867,45.051
		c-5.35,0-9.701-4.347-9.701-9.693c0-5.352,4.352-9.7,9.701-9.7c5.346,0,9.693,4.349,9.693,9.7
		C41.56,40.704,37.212,45.051,31.867,45.051z"/>
</g>
</svg>
